icon/cg/globe-alt.svg

<svg viewBox="0 0 24 24" fill="none" xmlns="http://www.w3.org/2000/svg" height="1em" width="1em">
  <path fill-rule="evenodd" clip-rule="evenodd" d="M12 21C16.9706 21 21 16.9706 21 12C21 7.02944 16.9706 3 12 3C7.02944 3 3 7.02944 3 12C3 16.9706 7.02944 21 12 21ZM14.8055 18.4151C17.1228 17.4003 18.7847 15.1667 18.9806 12.525C18.1577 12.9738 17.12 13.3418 15.9371 13.598C15.7882 15.4676 15.3827 17.1371 14.8055 18.4151ZM9.1945 5.58487C7.24725 6.43766 5.76275 8.15106 5.22208 10.244C5.4537 10.4638 5.84813 10.7341 6.44832 11.0008C6.89715 11.2003 7.42053 11.3798 8.00537 11.5297C8.05853 9.20582 8.50349 7.11489 9.1945 5.58487ZM10.1006 13.9108C10.2573 15.3675 10.5852 16.6202 10.9992 17.5517C11.2932 18.2133 11.5916 18.6248 11.8218 18.8439C11.9037 18.9219 11.9629 18.9634 12 18.9848C12.0371 18.9634 12.0963 18.9219 12.1782 18.8439C12.4084 18.6248 12.7068 18.2133 13.0008 17.5517C13.4148 16.6202 13.7427 15.3675 13.8994 13.9108C13.2871 13.9692 12.6516 14 12 14C11.3484 14 10.7129 13.9692 10.1006 13.9108ZM8.06286 13.598C8.21176 15.4676 8.61729 17.1371 9.1945 18.4151C6.8772 17.4003 5.21525 15.1666 5.01939 12.525C5.84231 12.9738 6.88001 13.3418 8.06286 13.598ZM13.9997 11.8896C13.369 11.9609 12.6993 12 12 12C11.3008 12 10.631 11.9609 10.0003 11.8896C10.0135 9.66408 10.4229 7.74504 10.9992 6.44832C11.2932 5.78673 11.5916 5.37516 11.8218 5.15605C11.9037 5.07812 11.9629 5.03659 12 5.01516C12.0371 5.03659 12.0963 5.07812 12.1782 5.15605C12.4084 5.37516 12.7068 5.78673 13.0008 6.44832C13.5771 7.74504 13.9865 9.66408 13.9997 11.8896ZM15.9946 11.5297C15.9415 9.20582 15.4965 7.11489 14.8055 5.58487C16.7528 6.43766 18.2373 8.15107 18.7779 10.244C18.5463 10.4638 18.1519 10.7341 17.5517 11.0008C17.1029 11.2003 16.5795 11.3798 15.9946 11.5297Z" fill="currentColor"/>
</svg>

<svg width="24" height="24" fill="none" xmlns="http://www.w3.org/2000/svg"><path fill-rule="evenodd" clip-rule="evenodd" d="M12 21a9 9 0 1 0 0-18 9 9 0 0 0 0 18Zm2.806-2.585a7.004 7.004 0 0 0 4.175-5.89c-.823.449-1.861.817-3.044 1.073-.149 1.87-.554 3.54-1.131 4.817ZM9.195 5.585a7.016 7.016 0 0 0-3.973 4.659c.232.22.626.49 1.226.757.45.2.973.379 1.557.529.054-2.324.498-4.415 1.19-5.945Zm.906 8.326c.156 1.457.484 2.71.898 3.64.294.662.593 1.074.823 1.293.082.078.14.12.178.14a.983.983 0 0 0 .178-.14c.23-.22.529-.63.823-1.292.414-.932.742-2.184.898-3.641a20.034 20.034 0 0 1-3.798 0Zm-2.038-.313c.149 1.87.554 3.54 1.131 4.817a7.004 7.004 0 0 1-4.175-5.89c.823.449 1.861.817 3.044 1.073ZM14 11.89c-.631.07-1.3.11-2 .11s-1.369-.04-2-.11c.014-2.226.423-4.145 1-5.442.293-.661.592-1.073.822-1.292a.988.988 0 0 1 .178-.14.988.988 0 0 1 .178.14c.23.22.529.63.823 1.292.576 1.297.986 3.216.999 5.442Zm1.995-.36c-.053-2.324-.498-4.415-1.19-5.945a7.016 7.016 0 0 1 3.973 4.659c-.232.22-.626.49-1.226.757-.45.2-.973.379-1.557.529Z" fill="currentColor"/></svg>
